X:3921
L:1/8
M:4/4
K:C
[M:4/4][K:D] (1978:2:11a25/32 Tue25/32 a25/32[Q:1/8=180]ud25/32c25/32d25/32A25/32 F25/32D25/32F25/32A25/32 | 
 dcdA cdec | dcdA FG A2 | Beed cABc :| d2 ad bdad | d2 ad cdec | d2 ad bdad | gfge cdec | 
 d2 ad bdad | d2 ad cd e2 | bagf gfed | e2 ed egfe |"^last time" d8 |]

